(
Pdef(0,
	Pbind(*[
		type:\cln,
	snd:\mmd,
		num: Pseq([1, 0, 6,4,3,2,], inf),
		pan: Prand([0.8, 3.0, 2.2, 1.0,0.0,], inf),

	]),
).play
)


(
Pdef(0,
	Pbind(*[
		type:\cln,
	snd:\mmd,
		num: Pseq([2, 8, 6,4,3,0,5,2,2,7,9,4,], inf),
		pan: Prand([4.8, 5.0, 0.2, 1.7,0.0,], inf),

	]),
).play
)